X:141
T:Durham's Reel
C:Herschel Sizemore
R:bluegrass
L:1/8
Q:1/4=240
M:4/4
K:A
z8 |: "A"A,B, CE FE CE | AE CE FE CE | "D"DE FA BA FA | dA FA BA FA | "E7"EF GB cB GB | 
eB GB cB GF | EF GA BA Bc |1 A"A"B ce a4 :|2 A"A"B ce a2 ab | c'"A"a bc' ae =gf | 
ea ed cB Ad | "D"fd ef eA =cB | AG FE D2 DE | "B7"FA Bc ^de fg | af ga fB ^df | 
"E7"ed ^de ee ef | gb gf e4 | z8 | z8 | z8 | z8 | z8 | z8 | ^A8 | 


